X:354
T:Reel 354
M:4/4
K:Gmaj
L:1/8
dc|B>G (3GGG BGdc|B>G (3GFG d2cB|c>A (3AAA cAAc|cAeA =fccA|B>G (3GGG BGdc|B>G (3GGG d2cB|cedc BGAF|DGGF G2|BA|Gggf gedB|Gggf gedB|Aaa^g aecB|Aaa^g aecA|Gggf gedB|Gggf gedB|Aaa^g ae=fe|ag=fa gdBd|
